assets/images/icons/prev-bl.svg

<svg width="22" height="22" viewBox="0 0 22 22" fill="none" xmlns="http://www.w3.org/2000/svg">
<g clip-path="url(#clip0)">
<path d="M7.1762 3.4991C7.48635 3.18894 7.97463 3.18894 8.28479 3.4991C8.58446 3.79877 8.58446 4.29753 8.28479 4.59651L2.66359 10.2177L21.2128 10.2177C21.6452 10.2177 22 10.5614 22 10.9938C22 11.4262 21.6452 11.7811 21.2128 11.7811L2.66359 11.7811L8.28479 17.3918C8.58446 17.7019 8.58446 18.2014 8.28479 18.5004C7.97463 18.8105 7.48635 18.8105 7.1762 18.5004L0.224269 11.5484C-0.0754073 11.2488 -0.0754073 10.75 0.224269 10.451L7.1762 3.4991Z" fill="#1D1D1D"/>
</g>
<defs>
<clipPath id="clip0">
<rect width="22" height="22" fill="white"/>
</clipPath>
</defs>
</svg>

<svg width="22" height="22" fill="none" xmlns="http://www.w3.org/2000/svg"><g clip-path="url(#clip0)"><path d="M7.176 3.5a.777.777 0 011.109 0c.3.299.3.798 0 1.097l-5.621 5.62h18.549a.78.78 0 01.787.777.79.79 0 01-.787.787H2.663l5.622 5.61c.3.31.3.81 0 1.11a.777.777 0 01-1.109 0L.224 11.547c-.3-.3-.3-.798 0-1.097l6.952-6.952z" fill="#1D1D1D"/></g><defs><clipPath id="clip0"><path fill="#fff" d="M0 0h22v22H0z"/></clipPath></defs></svg>
